X: 1
T:Marine Corps Hymn  " "
M:C
L:1/8
Q:80
C:March
S:March
K:HP
[| {g}Ac|
{g}e2{A}e2{g}e2{A}e2|
{g}e2-e3/2a/2e2{g}cd|  !
{g}e2{A}e2{Gdc}d/2{g}B3/2-B2|
{G}A4{GAG}A2|
{g}Ac|  !
{g}e2{A}e2{g}e2{A}e2|
{g}e2-e3/2a/2e2{g}cd|
{g}e2{A}e2{Gdc}d/2{g}B3/2-B2|  !
{G}A4{GAG}A2|
ag|
{a}f2{g}d2{g}f2a2|
{ef}e3f{g}e2ag|  !
{a}f2{g}d2{g}fa3|
{ef}e4{A}e2|
{g}Ac|  !
{g}e2{A}e2{g}e2{A}e2|
{g}e2-e3/2a/2e2{g}cd|
{g}e2{A}e2{Gdc}d/2{e}B3/2-B2|  !
{G}A4{GAG}A2|]
